X:1
T:Adieu, sweet Amarillis
T:anon.
T:Kanon
%%score [ 1 2 3 ]
L:1/8
Q:1/4=80
M:4/4
K:A
V:1 treble nm="I"
V:2 treble nm="II"
V:3 treble nm="III"
V:1
|:"^Adagio" F2 | A2 F2 ^E2 F2 | G2 C2 z2 c2 | d2 d2 c2 B2 | c2 C2 z2 A2 | G2 A2 B4- | B4 A4 | G8 | %8
w: A-|dieu, sweet A- ma-|ril- lis, for|since to part your|will is, A-|dieu, sweet A-|* ma-|ril-|
 F6 :| %9
w: lis,|
V:2
|: z2 | A8 | G4 A4- | A4 G4- | G4 F4 | z2 F2 E2 D2 | C2 ^E2 F4- | F4 ^E4 | F6 :| %9
w: |O|hea- vy|_ ti-|* ding,|there is for|me no bi-||ding,|
V:3
|: z2 | F8 | ^E2 C2 F2 =E2 | D4 E4 | A,6 B,2 | C4 G4- | G2 c2 C2 F2 | (B2 G2) c4 | ^A6 :| %9
w: |Yet|once a- gain, ere|that I|part with|you, A-|* ma- ril- lis|sweet, _ a-|dieu.|

